src/assets/healthPage/RootCanal/2.svg

<svg height="40" viewBox="0 0 40 40" width="40" xmlns="http://www.w3.org/2000/svg"><g fill="none" opacity=".5"><path d="m25 27v-2h-6.8l3.4-3.6c1-1.1 1.8-2 2.3-2.8.4-.8.7-1.6.7-2.4 0-1.4-.4-2.4-1.3-3.2-.8-.8-1.9-1.1-3.4-1.1-1.6 0-2.8.4-3.7 1.3s-1.4 2-1.4 3.4h2.5c0-.9.2-1.5.6-2 .5-.5 1.1-.7 2-.7.7 0 1.2.2 1.6.6.4.5.6 1 .6 1.7 0 .6-.2 1.1-.5 1.6-.3.6-.8 1.3-1.6 2.2l-4.9 5.3v1.7z" fill="#fff"/><circle cx="20" cy="20" r="19" stroke="#fff" stroke-width="2"/></g></svg>

<svg xmlns="http://www.w3.org/2000/svg" width="40" height="40" viewBox="0 0 40 40"><title>    n2@2x</title><g style="fill:none;opacity:0.5"><path d="M25 27L25 25 18.2 25 21.6 21.4C22.6 20.3 23.4 19.4 23.9 18.6 24.3 17.8 24.6 17 24.6 16.2 24.6 14.8 24.2 13.8 23.3 13 22.5 12.2 21.4 11.9 19.9 11.9 18.3 11.9 17.1 12.3 16.2 13.2 15.3 14.1 14.8 15.2 14.8 16.6L14.8 16.6 17.3 16.6C17.3 15.7 17.5 15.1 17.9 14.6 18.4 14.1 19 13.9 19.9 13.9 20.6 13.9 21.1 14.1 21.5 14.5 21.9 15 22.1 15.5 22.1 16.2 22.1 16.8 21.9 17.3 21.6 17.8 21.3 18.4 20.8 19.1 20 20L20 20 15.1 25.3 15.1 27 25 27Z" fill="#FFF"/><circle cx="20" cy="20" r="19" style="stroke-width:2;stroke:#FFF"/></g></svg>
